img/logo-white.svg

<svg fill="none" height="86" viewBox="0 0 113 86" width="113" xmlns="http://www.w3.org/2000/svg"><g fill="#fff"><path d="m13.9353 28.3659h1.7705v-26.55531h81.6398v26.55531h1.7705v-28.3659h-85.1808z"/><path d="m71.9684 34.0189c-3.4623.5835-6.3345 3.5206-6.9443 7.1016-.8263 4.9087 2.282 9.3949 7.0426 10.1795 2.282.3822 5.0755-.1408 6.6492-1.2272.7279-.523 2.105-1.8106 2.105-1.9916 0-.0604-.2755-.3219-.6099-.5834l-.5901-.4426-.7673.7041c-1.436 1.3278-2.6164 1.7905-4.7213 1.8911-2.3213.1005-3.6197-.342-5.1148-1.71-1.7508-1.6095-2.518-3.6212-2.2819-5.9549.2557-2.4946 1.6327-4.5264 3.8164-5.6128 1.2-.6035 1.4557-.6639 3.1869-.6639 1.5934 0 2.0262.0805 2.9901.5432.6099.2816 1.5148.9053 2.0066 1.368l.8853.8248.5901-.4426c.3344-.2615.6099-.5431.6099-.6236 0-.4024-1.8886-2.0118-3.0099-2.5549-1.141-.5835-3.1672-1.0462-4.2689-1.0059-.2754.0201-.9836.1006-1.5737.2011z"/><path d="m111.903 34.4012c-1.731 1.3076-6.394 3.1383-10.131 3.9229-5.9019 1.2875-7.338 1.8709-8.9314 3.6413-.5115.5633-1.141 1.5491-1.4164 2.1727l-.4721 1.1266h-1.3771c-1.7115 0-2.6754-.2615-3.8754-1.0461-.7869-.503-1.023-.5633-1.4754-.4024-.5312.1811-.5312.2012.7475.8047 1.6721.7645 3.7377 1.2473 5.4492 1.2473.964 0 1.4361.0805 1.6131.3018.8853 1.0863 4.9378 1.5692 7.082.8248 4.466-1.549 8.4-5.1099 12.413-11.2256 1.181-1.7905 1.259-2.052.374-1.368zm-1.082 1.3478c-2.518 4.0437-6.551 8.1678-9.423 9.6565-3.1082 1.6094-6.1771 1.871-8.7345.7444l-.7278-.3219 1.2787-.2817c.7082-.1408 2.0459-.5431 2.9901-.8851 1.8492-.6438 5.3315-2.2331 5.2135-2.3538-.04-.0402-.807.2414-1.6725.6236-2.6557 1.1669-7.7311 2.5952-8.0459 2.2733-.1967-.2213.7279-1.9715 1.5148-2.8365 1.5541-1.7302 2.8328-2.2532 8.1636-3.3195 4.072-.8248 7.082-1.9313 8.951-3.3194.866-.6437.905-.6437.492.0201z"/><path d="m.0663937 34.4615c-.05901661.1207-.0786888 3.9029-.05901662 8.3891l.05901662 8.1476 2.9508363-.0201c2.65575 0 3.04919-.0603 3.99346-.4828 2.4787-1.1065 3.48201-3.9431 2.30165-6.3773-.9246-1.8911-2.32133-2.5952-5.64593-2.8165l-1.92788-.1207v-5.1702h6.49183v-1.8106h-4.0328c-3.04919 0-4.07215.0604-4.1311663.2615zm6.3934663 9.1133c1.9869 1.187 2.10493 3.9632.2164 5.1501-.59017.3823-1.04263.4627-2.81313.5432l-2.1246.0604v-6.317l2.02624.0805c1.57378.0604 2.16394.1609 2.69509.4828z"/><path d="m13.9353 51.1189.8459-.0603.8263-.0604v-16.6976l-.8263-.0604-.8459-.0603z"/><path d="m19.6402 34.3408c0 .1006 1.0623 1.9313 2.3607 4.0638s2.3607 3.9229 2.3607 3.9833c0 .0402-1.141 1.9715-2.5574 4.285-1.3968 2.2934-2.5574 4.2449-2.5574 4.3052 0 .0604.4131.1207.9443.1207h.9245l2.0656-3.4401c1.1213-1.8911 2.105-3.4602 2.164-3.5005.059-.0402.7278.9858 1.4754 2.2733 2.8131 4.788 2.7148 4.6673 3.7377 4.6673.4918 0 .8853-.0603.8853-.1609 0-.0805-1.141-2.0319-2.5574-4.3656-2.3213-3.8223-2.5181-4.2448-2.282-4.627 1.3574-2.1325 4.4459-7.3631 4.4459-7.524 0-.1207-.3738-.2213-.8656-.2213h-.8459l-1.9278 3.2188c-1.0623 1.7704-1.9869 3.2188-2.046 3.2188-.059-.0201-.9639-1.4484-1.9868-3.1785l-1.8689-3.1585-.9246-.0604c-.5311-.0402-.9443.0201-.9443.1006z"/><path d="m35.3781 51.0988h9.2459v-1.8106h-7.6721v-6.4376h7.6721v-1.71h-7.5738l-.118-5.13h7.9082l-.059-.8651-.059-.8449-4.6623-.0604-4.682-.0402z"/><path d="m53.7126 36.0508c-3.1672 7.4234-6.3345 14.8871-6.3345 14.9676 0 .0603.4132.0804.9246.0402l.9246-.0604 2.6558-6.2968c1.4754-3.4401 2.7147-6.2767 2.7737-6.2767.0591 0 1.2984 2.8567 2.7542 6.3371l2.636 6.337h.8656c.8066 0 .8656-.0402.7476-.4627-.2164-.865-6.787-16.3355-6.964-16.3959-.0984-.0201-.5312.7846-.9836 1.8106z"/><path d="m13.9353 85.5h85.1808v-28.3659h-1.7705v26.5553h-81.6398v-26.5553h-1.7705z"/></g></svg>

<svg width="113" height="86" viewBox="0 0 113 86" fill="none" xmlns="http://www.w3.org/2000/svg">
<path d="M13.9353 28.3659H15.7058V1.81059H97.3456V28.3659H99.1161V0H13.9353V28.3659Z" fill="white"/>
<path d="M71.9684 34.0189C68.5061 34.6024 65.6339 37.5395 65.0241 41.1205C64.1978 46.0292 67.3061 50.5154 72.0667 51.3C74.3487 51.6822 77.1422 51.1592 78.7159 50.0728C79.4438 49.5498 80.8209 48.2622 80.8209 48.0812C80.8209 48.0208 80.5454 47.7593 80.211 47.4978L79.6209 47.0552L78.8536 47.7593C77.4176 49.0871 76.2372 49.5498 74.1323 49.6504C71.811 49.7509 70.5126 49.3084 69.0175 47.9404C67.2667 46.3309 66.4995 44.3192 66.7356 41.9855C66.9913 39.4909 68.3683 37.4591 70.552 36.3727C71.752 35.7692 72.0077 35.7088 73.7389 35.7088C75.3323 35.7088 75.7651 35.7893 76.729 36.252C77.3389 36.5336 78.2438 37.1573 78.7356 37.62L79.6209 38.4448L80.211 38.0022C80.5454 37.7407 80.8209 37.4591 80.8209 37.3786C80.8209 36.9762 78.9323 35.3668 77.811 34.8237C76.67 34.2402 74.6438 33.7775 73.5421 33.8178C73.2667 33.8379 72.5585 33.9184 71.9684 34.0189Z" fill="white"/>
<path d="M111.903 34.4012C110.172 35.7088 105.509 37.5395 101.772 38.3241C95.8701 39.6116 94.434 40.195 92.8406 41.9654C92.3291 42.5287 91.6996 43.5145 91.4242 44.1381L90.9521 45.2647H89.575C87.8635 45.2647 86.8996 45.0032 85.6996 44.2186C84.9127 43.7156 84.6766 43.6553 84.2242 43.8162C83.693 43.9973 83.693 44.0174 84.9717 44.6209C86.6438 45.3854 88.7094 45.8682 90.4209 45.8682C91.3849 45.8682 91.857 45.9487 92.034 46.17C92.9193 47.2563 96.9718 47.7392 99.116 46.9948C103.582 45.4458 107.516 41.8849 111.529 35.7692C112.71 33.9787 112.788 33.7172 111.903 34.4012ZM110.821 35.749C108.303 39.7927 104.27 43.9168 101.398 45.4055C98.2898 47.0149 95.2209 47.2765 92.6635 46.1499L91.9357 45.828L93.2144 45.5463C93.9226 45.4055 95.2603 45.0032 96.2045 44.6612C98.0537 44.0174 101.536 42.4281 101.418 42.3074C101.378 42.2672 100.611 42.5488 99.7455 42.931C97.0898 44.0979 92.0144 45.5262 91.6996 45.2043C91.5029 44.983 92.4275 43.2328 93.2144 42.3678C94.7685 40.6376 96.0472 40.1146 101.378 39.0483C105.45 38.2235 108.46 37.117 110.329 35.7289C111.195 35.0852 111.234 35.0852 110.821 35.749Z" fill="white"/>
<path d="M0.0663937 34.4615C0.00737709 34.5822 -0.0122951 38.3644 0.00737708 42.8506L0.0663937 50.9982L3.01723 50.9781C5.67298 50.9781 6.06642 50.9178 7.01069 50.4953C9.48939 49.3888 10.4927 46.5522 9.31234 44.118C8.38774 42.2269 6.99101 41.5228 3.66641 41.3015L1.73853 41.1808V36.0106H8.23036V34.2H4.19756C1.14837 34.2 0.12541 34.2604 0.0663937 34.4615ZM6.45986 43.5748C8.44676 44.7618 8.56479 47.538 6.67626 48.7249C6.08609 49.1072 5.63363 49.1876 3.86313 49.2681L1.73853 49.3285V43.0115L3.76477 43.092C5.33855 43.1524 5.92871 43.2529 6.45986 43.5748Z" fill="white"/>
<path d="M13.9353 51.1189L14.7812 51.0586L15.6075 50.9982V34.3006L14.7812 34.2402L13.9353 34.1799V51.1189Z" fill="white"/>
<path d="M19.6402 34.3408C19.6402 34.4414 20.7025 36.2721 22.0009 38.4046C23.2993 40.5371 24.3616 42.3275 24.3616 42.3879C24.3616 42.4281 23.2206 44.3594 21.8042 46.6729C20.4074 48.9663 19.2468 50.9178 19.2468 50.9781C19.2468 51.0385 19.6599 51.0988 20.1911 51.0988H21.1156L23.1812 47.6587C24.3025 45.7676 25.2862 44.1985 25.3452 44.1582C25.4042 44.118 26.073 45.144 26.8206 46.4315C29.6337 51.2195 29.5354 51.0988 30.5583 51.0988C31.0501 51.0988 31.4436 51.0385 31.4436 50.9379C31.4436 50.8574 30.3026 48.906 28.8862 46.5723C26.5649 42.75 26.3681 42.3275 26.6042 41.9453C27.9616 39.8128 31.0501 34.5822 31.0501 34.4213C31.0501 34.3006 30.6763 34.2 30.1845 34.2H29.3386L27.4108 37.4188C26.3485 39.1892 25.4239 40.6376 25.3648 40.6376C25.3058 40.6175 24.4009 39.1892 23.378 37.4591L21.5091 34.3006L20.5845 34.2402C20.0534 34.2 19.6402 34.2603 19.6402 34.3408Z" fill="white"/>
<path d="M35.3781 51.0988H44.624V49.2882H36.9519V42.8506H44.624V41.1406H37.0502L36.9322 36.0106H44.8404L44.7814 35.1455L44.7224 34.3006L40.0601 34.2402L35.3781 34.2V51.0988Z" fill="white"/>
<path d="M53.7126 36.0508C50.5454 43.4742 47.3781 50.9379 47.3781 51.0184C47.3781 51.0787 47.7913 51.0988 48.3027 51.0586L49.2273 50.9982L51.8831 44.7014C53.3585 41.2613 54.5978 38.4247 54.6568 38.4247C54.7159 38.4247 55.9552 41.2814 57.411 44.7618L60.047 51.0988H60.9126C61.7192 51.0988 61.7782 51.0586 61.6602 50.6361C61.4438 49.7711 54.8732 34.3006 54.6962 34.2402C54.5978 34.2201 54.165 35.0248 53.7126 36.0508Z" fill="white"/>
<path d="M13.9353 85.5H99.1161V57.1341H97.3456V83.6894H15.7058V57.1341H13.9353V85.5Z" fill="white"/>
</svg>
